Newaita-dark/actions/24/feed-subscribe.svg

<?xml version="1.0" encoding="UTF-8"?>
<svg xmlns="http://www.w3.org/2000/svg" xmlns:xlink="http://www.w3.org/1999/xlink" width="24pt" height="24pt" viewBox="0 0 24 24" version="1.1">
<g id="surface1">
<path style=" stroke:none;fill-rule:nonzero;fill:rgb(100%,43.921569%,26.274511%);fill-opacity:1;" d="M 0.992188 1.179688 L 0.992188 4.15625 C 11.4375 4.15625 19.84375 12.566406 19.84375 23.011719 L 22.824219 23.011719 C 22.824219 10.917969 13.085938 1.179688 0.992188 1.179688 Z M 0.992188 1.179688 "/>
<path style=" stroke:none;fill-rule:nonzero;fill:rgb(100%,43.921569%,26.274511%);fill-opacity:1;" d="M 0.992188 7.132812 L 0.992188 10.109375 C 8.140625 10.109375 13.890625 15.863281 13.890625 23.011719 L 16.867188 23.011719 C 16.867188 14.214844 9.789062 7.132812 0.992188 7.132812 Z M 0.992188 7.132812 "/>
<path style=" stroke:none;fill-rule:nonzero;fill:rgb(100%,43.921569%,26.274511%);fill-opacity:1;" d="M 4.714844 15.566406 C 6.769531 15.566406 8.433594 17.234375 8.433594 19.289062 C 8.433594 21.34375 6.769531 23.011719 4.714844 23.011719 C 2.660156 23.011719 0.992188 21.34375 0.992188 19.289062 C 0.992188 17.234375 2.660156 15.566406 4.714844 15.566406 Z M 4.714844 15.566406 "/>
</g>
</svg>

<svg xmlns="http://www.w3.org/2000/svg" width="32" height="32" viewBox="0 0 24 24"><g fill="#ff7043"><path d="M.992 1.18v2.976a18.812 18.812 0 0 1 18.852 18.856h2.98A21.786 21.786 0 0 0 .992 1.18zm0 0"/><path d="M.992 7.133v2.976a12.87 12.87 0 0 1 12.899 12.903h2.976A15.84 15.84 0 0 0 .992 7.132zm0 0"/><path d="M4.715 15.566a3.721 3.721 0 0 1 3.719 3.723 3.721 3.721 0 1 1-7.442 0 3.724 3.724 0 0 1 3.723-3.723zm0 0"/></g></svg>
